<?xml version="1.0" encoding="UTF-8"?>
<map version="1.10" tiledversion="1.11.2" orientation="orthogonal" renderorder="right-down" width="8" height="13" tilewidth="16" tileheight="16" infinite="0" nextlayerid="9" nextobjectid="1">
 <tileset firstgid="1" source="indoor_tiles2.tsx"/>
 <group id="4" name="back_layers">
  <layer id="1" name="floor" width="8" height="13">
   <data encoding="csv">
1,1,1,1,1,1,1,1,
1,1,1,1,1,1,1,1,
1,1,1,1,1,1,1,1,
1,1,1,1,1,1,1,1,
1,1,1,1,1,1,1,1,
1,1,1,1,1,1,1,1,
1,1,1,1,1,1,1,1,
1,1,1,1,1,1,1,1,
1,1,1,1,1,1,1,1,
1,1,1,1,1,1,1,1,
1,1,1,1,1,1,1,1,
1,1,1,1,1,1,1,1,
1,1,1,1,1,1,1,1
</data>
  </layer>
  <layer id="5" name="walls" width="8" height="13">
   <data encoding="csv">
3,3,3,3,3,3,3,3,
3,195,195,195,195,195,195,3,
3,227,227,227,227,227,227,3,
3,0,0,0,0,0,0,3,
3,0,0,0,0,0,0,3,
3,0,0,0,0,0,0,3,
3,0,0,0,0,0,0,3,
3,0,0,0,0,0,0,3,
3,0,0,0,0,0,0,3,
3,0,0,0,0,0,0,3,
3,3,3,3,3,3,3,3,
2,2,2,2,2,2,2,2,
2,2,2,2,2,2,2,2
</data>
  </layer>
 </group>
 <group id="3" name="front_layers"/>
 <group id="2" name="meta_layers">
  <layer id="6" name="nav" width="8" height="13">
   <data encoding="csv">
0,0,0,0,0,0,0,0,
0,0,0,0,0,0,0,0,
65,65,65,65,65,65,65,65,
65,0,0,0,0,0,0,65,
65,0,0,0,0,0,0,65,
65,0,0,0,0,0,0,65,
65,0,0,0,0,0,0,65,
65,0,0,0,0,0,0,65,
65,0,0,0,0,0,0,65,
65,0,0,0,0,0,0,65,
65,65,65,65,65,65,65,65,
0,0,0,0,0,0,0,0,
0,0,0,0,0,0,0,0
</data>
  </layer>
  <layer id="7" name="shadow" width="8" height="13">
   <data encoding="csv">
66,66,66,66,66,66,66,66,
66,0,0,0,0,0,0,66,
66,0,0,0,0,0,0,66,
66,0,0,0,0,0,0,66,
66,0,0,0,0,0,0,66,
66,0,0,0,0,0,0,66,
66,0,0,0,0,0,0,66,
66,0,0,0,0,0,0,66,
66,0,0,0,0,0,0,66,
66,0,0,0,0,0,0,66,
66,66,66,66,66,66,66,66,
0,0,0,0,0,0,0,0,
0,0,0,0,0,0,0,0
</data>
  </layer>
  <layer id="8" name="light" width="8" height="13">
   <data encoding="csv">
0,0,0,0,0,0,0,0,
0,0,0,0,0,0,0,0,
0,0,0,0,0,0,0,0,
0,0,0,0,0,0,0,0,
0,0,0,0,0,0,0,0,
0,0,0,0,0,0,0,0,
0,0,0,0,0,0,0,0,
0,0,0,0,0,0,0,0,
0,0,0,0,0,0,0,0,
0,0,0,0,0,0,0,0,
0,0,0,0,0,0,0,0,
0,0,0,0,0,0,0,0,
0,0,0,0,0,0,0,0
</data>
  </layer>
 </group>
</map>
